!!!OTL: Ach, herzigs Herz!
!!!ARE: Europa, Mitteleuropa, Deutschland
!!!SCT: A0132
!!!YEM: Copyright 1995, estate of Helmut Schaffrath.
**kern
*ICvox
*Ivox
*M4/2
*k[b-]
*F:
{1a
=1
1.cc
2dd
=2
1ee
1ee
=3
1a
2r}
{2ff
=4
1ee
1dd
=5
1cc
2a
2cc
=6
4dd
4b-
2a
1g
=7
1f
2r}
{2cc
=8
1dd
2cc
[2ff
=9
2ff]
2ee
1dd
=10
1cc
2r}
{2ff
=11
1ff
1ff
=12
1ee
2r
2dd
=13
2.cc
4a
1b-
=14
1a
2r}
{2ff
=15
2ee
2dd
2cc
2b-
=16
1a
1g
=17
0f}
==
!!!AGN: Romanze, Ballade, Lied
!! H. Finck 1536 No. 8 und Forster II. 1540 No. 7. Jon., Anfang aeol.
!!!ONB: ESAC (Essen Associative Code) Database: ALTDEU
!!!AMT: simple quadruple
!!!AIN: vox
!!!EED: Helmut Schaffrath
!!!EEV: 1.0
*-
